src/2-landmarks/seat.svg

<svg width="1300" height="1000" viewBox="0 0 1300 1000" fill="none" xmlns="http://www.w3.org/2000/svg"><path fill-rule="evenodd" clip-rule="evenodd" d="M619 682v-10c0-11.046-8.954-20-20-20H107c-11.046 0-20 8.954-20 20v10H77c-11.046 0-20 8.954-20 20v20c0 11.046 8.954 20 20 20h10v158H0v100h1300V900H620V742h10c11.046 0 20-8.954 20-20v-20c0-11.046-8.954-20-20-20h-11Zm-540 7c-8.284 0-15 6.716-15 15v16c0 8.284 6.716 15 15 15h256c8.284 0 15-6.716 15-15v-16c0-8.284-6.716-15-15-15H79Zm15-15v8h243c6.85 0 12.895 3.444 16.5 8.694 3.605-5.25 9.65-8.694 16.5-8.694h242v-8c0-8.284-6.716-15-15-15H109c-8.284 0-15 6.716-15 15Zm278 15c-8.284 0-15 6.716-15 15v16c0 8.284 6.716 15 15 15h256c8.284 0 15-6.716 15-15v-16c0-8.284-6.716-15-15-15H372Zm-35 53c6.85 0 12.895-3.444 16.5-8.694 3.605 5.25 9.65 8.694 16.5 8.694h243v158H94V742h243Z" fill="#000"/></svg>

<svg width="1300" height="1000" viewBox="0 0 1300 1000" fill="none" xmlns="http://www.w3.org/2000/svg">
<path fill-rule="evenodd" clip-rule="evenodd" d="M619 682V672C619 660.954 610.046 652 599 652H107C95.9543 652 87 660.954 87 672V682H77C65.9543 682 57 690.954 57 702V722C57 733.046 65.9543 742 77 742H87V900H0V1000H1300V900H620V742H630C641.046 742 650 733.046 650 722V702C650 690.954 641.046 682 630 682H619ZM79 689C70.7157 689 64 695.716 64 704V720C64 728.284 70.7157 735 79 735H335C343.284 735 350 728.284 350 720V704C350 695.716 343.284 689 335 689H79ZM94 674V682H337C343.85 682 349.895 685.444 353.5 690.694C357.105 685.444 363.15 682 370 682H612V674C612 665.716 605.284 659 597 659H109C100.716 659 94 665.716 94 674ZM372 689C363.716 689 357 695.716 357 704V720C357 728.284 363.716 735 372 735H628C636.284 735 643 728.284 643 720V704C643 695.716 636.284 689 628 689H372ZM337 742C343.85 742 349.895 738.556 353.5 733.306C357.105 738.556 363.15 742 370 742H613V900H94V742H337Z" fill="black"/>
</svg>
